Numix/32/mimetypes/wps-office-wpt.svg

<?xml version="1.0" encoding="UTF-8" standalone="no"?>
<svg
   xmlns:dc="http://purl.org/dc/elements/1.1/"
   xmlns:cc="http://creativecommons.org/ns#"
   xmlns:rdf="http://www.w3.org/1999/02/22-rdf-syntax-ns#"
   xmlns:svg="http://www.w3.org/2000/svg"
   xmlns="http://www.w3.org/2000/svg"
   xmlns:sodipodi="http://sodipodi.sourceforge.net/DTD/sodipodi-0.dtd"
   xmlns:inkscape="http://www.inkscape.org/namespaces/inkscape"
   width="32"
   height="32"
   viewBox="0 0 32 32"
   id="svg2"
   version="1.1"
   inkscape:version="0.91 r13725"
   sodipodi:docname="wps-office-wpt.svg">
  <metadata
     id="metadata36">
    <rdf:RDF>
      <cc:Work
         rdf:about="">
        <dc:format>image/svg+xml</dc:format>
        <dc:type
           rdf:resource="http://purl.org/dc/dcmitype/StillImage" />
      </cc:Work>
    </rdf:RDF>
  </metadata>
  <defs
     id="defs34" />
  <sodipodi:namedview
     pagecolor="#ffffff"
     bordercolor="#666666"
     borderopacity="1"
     objecttolerance="10"
     gridtolerance="10"
     guidetolerance="10"
     inkscape:pageopacity="0"
     inkscape:pageshadow="2"
     inkscape:window-width="1366"
     inkscape:window-height="704"
     id="namedview32"
     showgrid="true"
     inkscape:zoom="64"
     inkscape:cx="13.417834"
     inkscape:cy="4.366175"
     inkscape:window-x="0"
     inkscape:window-y="27"
     inkscape:window-maximized="1"
     inkscape:current-layer="svg2"
     showguides="false">
    <inkscape:grid
       type="xygrid"
       id="grid3036" />
  </sodipodi:namedview>
  <path
     inkscape:connector-curvature="0"
     style="fill:#3468ce;fill-opacity:1"
     d="M 5.34375,0 C 4.656276,1.5e-5 4,0.689007 4,1.40625 l 0,29.1875 C 4,31.270239 4.695336,32 5.34375,32 l 21.3125,0 C 27.304664,32 28,31.270239 28,30.59375 L 28,8.999999 28,1.375 C 28,0.702049 27.297951,0 26.625,0 L 19,0 5.34375,0 z"
     id="path4-1" />
  <rect
     style="fill:#f9f9f9;fill-opacity:1;fill-rule:evenodd;stroke:none"
     id="rect3029"
     width="6"
     height="5"
     x="10"
     y="10" />
  <rect
     style="fill:#f9f9f9;fill-opacity:1;fill-rule:evenodd;stroke:none"
     id="rect3031"
     width="5"
     height="1"
     x="17"
     y="10" />
  <rect
     style="fill:#f9f9f9;fill-opacity:1;fill-rule:evenodd;stroke:none"
     id="rect3033"
     width="5"
     height="1"
     x="17"
     y="12" />
  <rect
     style="fill:#f9f9f9;fill-opacity:1;fill-rule:evenodd;stroke:none"
     id="rect3035"
     width="5"
     height="1"
     x="17"
     y="14" />
  <rect
     style="fill:#f9f9f9;fill-opacity:1;fill-rule:evenodd;stroke:none"
     id="rect3037"
     width="12"
     height="1"
     x="10"
     y="16" />
  <rect
     style="fill:#f9f9f9;fill-opacity:1;fill-rule:evenodd;stroke:none"
     id="rect3039"
     width="12"
     height="1"
     x="10"
     y="17.999998" />
  <rect
     style="fill:#f9f9f9;fill-opacity:1;fill-rule:evenodd;stroke:none"
     id="rect3041"
     width="12"
     height="1"
     x="10"
     y="19.999998" />
  <path
     style="fill:#000000;fill-opacity:0.19599998"
     d="m 4,24 0,6.667969 C 4,31.316407 4.6875,32 5.332031,32 l 21.335938,0 C 27.3125,32 28,31.316407 28,30.667969 L 28,24 z"
     id="path22"
     inkscape:connector-curvature="0" />
  <g
     style="fill:#ffffff"
     id="g24"
     transform="matrix(1.0519309,0,0,1.0519309,-0.84513621,-0.55792591)">
    <path
       d="m 11.697666,26.356256 c 0.208727,0.805196 0.472364,1.609862 0.703249,2.385984 -0.01357,-1.569658 -0.02184,-3.009014 -0.02735,-4.446038 l 1.073264,0 C 13.383478,26.211059 13.257366,28.141428 13.085866,30 l -0.957308,0 C 11.823788,29.145826 11.56831,28.312794 11.299426,27.501193 10.990716,28.358684 10.723103,29.178933 10.450251,30 L 9.4889397,30 C 9.2689012,28.103048 9.1710736,26.156952 9.1123196,24.296202 l 1.0734654,0 c -0.02079,1.484674 -0.02535,2.996586 -0.03594,4.446038 0.234754,-0.798348 0.515343,-1.665775 0.730277,-2.385984"
       id="path26"
       inkscape:connector-curvature="0"
       sodipodi:nodetypes="ccccccccccccc" />
    <path
       d="m 15.769531,24.296203 c 0.722657,0 1.285157,0.146252 1.679688,0.447111 0.398437,0.288324 0.597656,0.768864 0.597656,1.437441 0,0.676933 -0.203125,1.16583 -0.605469,1.46669 -0.398437,0.300859 -0.964844,0.447111 -1.699218,0.447111 l -0.45113,0 0,1.905444 -1.08012,0 0,-5.570081 c 0.401357,-0.08949 0.809004,-0.09815 1.203124,-0.12536 0.132813,-0.0083 0.253907,-0.0083 0.355469,-0.0083 m 0.128907,0.973615 c -0.06641,0 -0.160157,0.0042 -0.285157,0.0083 -0.117187,0 -0.255817,0.0083 -0.322223,0.02089 l 0,1.821873 0.505817,0 c 0.363281,0 0.632813,-0.07104 0.816406,-0.208931 0.1875,-0.146252 0.277344,-0.392789 0.277344,-0.739613 0,-0.33011 -0.08984,-0.559933 -0.277344,-0.693648 C 16.4375,25.34085 16.199219,25.269814 15.898438,25.269814"
       id="path28"
       inkscape:connector-curvature="0"
       sodipodi:nodetypes="ccscsccccccccccscscc" />
    <path
       d="m 22.667969,24.358882 0,0.927651 -1.523033,0 0,4.713467 -1.136719,0 0,-4.713467 -1.473061,0 0,-0.927651 4.132813,0"
       id="path30"
       inkscape:connector-curvature="0"
       sodipodi:nodetypes="ccccccccc" />
  </g>
</svg>

<svg xmlns="http://www.w3.org/2000/svg" viewBox="0 0 32 32">
 <path d="m 5.344 0 c -0.687 0 -1.344 0.689 -1.344 1.406 l 0 29.19 c 0 0.676 0.695 1.406 1.344 1.406 l 21.313 0 c 0.648 0 1.344 -0.73 1.344 -1.406 l 0 -21.594 0 -7.625 c 0 -0.673 -0.702 -1.375 -1.375 -1.375 l -7.625 0 -13.656 0 z" style="fill:#3468ce;fill-opacity:1"/>
 <rect width="6" height="5" x="10" y="10" style="fill:#f9f9f9;fill-opacity:1;stroke:none;fill-rule:evenodd"/>
 <rect width="5" height="1" x="17" y="10" style="fill:#f9f9f9;fill-opacity:1;stroke:none;fill-rule:evenodd"/>
 <rect width="5" height="1" x="17" y="12" style="fill:#f9f9f9;fill-opacity:1;stroke:none;fill-rule:evenodd"/>
 <rect width="5" height="1" x="17" y="14" style="fill:#f9f9f9;fill-opacity:1;stroke:none;fill-rule:evenodd"/>
 <rect width="12" height="1" x="10" y="16" style="fill:#f9f9f9;fill-opacity:1;stroke:none;fill-rule:evenodd"/>
 <rect width="12" height="1" x="10" y="18" style="fill:#f9f9f9;fill-opacity:1;stroke:none;fill-rule:evenodd"/>
 <rect width="12" height="1" x="10" y="20" style="fill:#f9f9f9;fill-opacity:1;stroke:none;fill-rule:evenodd"/>
 <path d="m 4 24 0 6.668 c 0 0.648 0.688 1.332 1.332 1.332 l 21.336 0 c 0.645 0 1.332 -0.684 1.332 -1.332 l 0 -6.668 z" style="fill:#000;fill-opacity:0.196"/>
 <g transform="matrix(1.0519309,0,0,1.0519309,-0.84513621,-0.55792591)" style="fill:#fff">
  <path d="m 11.698 26.356 c 0.209 0.805 0.472 1.61 0.703 2.386 -0.014 -1.57 -0.022 -3.01 -0.027 -4.446 l 1.073 0 c -0.063 1.915 -0.189 3.845 -0.361 5.704 l -0.957 0 c -0.305 -0.854 -0.56 -1.687 -0.829 -2.499 -0.309 0.857 -0.576 1.678 -0.849 2.499 l -0.961 0 c -0.22 -1.897 -0.318 -3.843 -0.377 -5.704 l 1.073 0 c -0.021 1.485 -0.025 2.997 -0.036 4.446 0.235 -0.798 0.515 -1.666 0.73 -2.386"/>
  <path d="m 15.77 24.296 c 0.723 0 1.285 0.146 1.68 0.447 0.398 0.288 0.598 0.769 0.598 1.437 0 0.677 -0.203 1.166 -0.605 1.467 -0.398 0.301 -0.965 0.447 -1.699 0.447 l -0.451 0 0 1.905 -1.08 0 0 -5.57 c 0.401 -0.089 0.809 -0.098 1.203 -0.125 0.133 -0.008 0.254 -0.008 0.355 -0.008 m 0.129 0.974 c -0.066 0 -0.16 0.004 -0.285 0.008 -0.117 0 -0.256 0.008 -0.322 0.021 l 0 1.822 0.506 0 c 0.363 0 0.633 -0.071 0.816 -0.209 0.188 -0.146 0.277 -0.393 0.277 -0.74 0 -0.33 -0.09 -0.56 -0.277 -0.694 c -0.176 -0.138 -0.414 -0.209 -0.715 -0.209"/>
  <path d="m 22.668 24.359 0 0.928 -1.523 0 0 4.713 -1.137 0 0 -4.713 -1.473 0 0 -0.928 4.133 0"/>
 </g>
</svg>
